about/assets/web.svg

<svg xmlns="http://www.w3.org/2000/svg" viewBox="0 0 14 14" width="512" height="512" enable-background="new 0 0 14 14"><path d="M7 9l-1.732-1.516-4.952 4.245c.18.167.423.271.691.271h11.986c.267 0 .509-.104.688-.271l-4.949-4.245-1.732 1.516zm6.684-6.729c-.18-.168-.422-.271-.691-.271h-11.986c-.267 0-.509.104-.689.273l6.682 5.727 6.684-5.729zm-13.684.607v8.308l4.833-4.107zm9.167 4.201l4.833 4.107v-8.311z" fill="#33C1E3"/></svg>

<?xml version="1.0" encoding="iso-8859-1"?>
<!-- Generator: Adobe Illustrator 18.1.1, SVG Export Plug-In . SVG Version: 6.00 Build 0)  -->
<svg xmlns="http://www.w3.org/2000/svg" xmlns:xlink="http://www.w3.org/1999/xlink" version="1.1" id="Capa_1" x="0px" y="0px" viewBox="0 0 14 14" style="enable-background:new 0 0 14 14;" xml:space="preserve" width="512px" height="512px">
<g>
	<g>
		<path d="M7,9L5.268,7.484l-4.952,4.245C0.496,11.896,0.739,12,1.007,12h11.986    c0.267,0,0.509-0.104,0.688-0.271L8.732,7.484L7,9z" fill="#33C1E3"/>
		<path d="M13.684,2.271C13.504,2.103,13.262,2,12.993,2H1.007C0.74,2,0.498,2.104,0.318,2.273L7,8    L13.684,2.271z" fill="#33C1E3"/>
		<polygon points="0,2.878 0,11.186 4.833,7.079   " fill="#33C1E3"/>
		<polygon points="9.167,7.079 14,11.186 14,2.875   " fill="#33C1E3"/>
	</g>
</g>
<g>
</g>
<g>
</g>
<g>
</g>
<g>
</g>
<g>
</g>
<g>
</g>
<g>
</g>
<g>
</g>
<g>
</g>
<g>
</g>
<g>
</g>
<g>
</g>
<g>
</g>
<g>
</g>
<g>
</g>
</svg>
